X: 571
T: Kiss the maid amid behind the barrel
C: anon.
O: Ireland
B: Francis O'Neill: "The Dance Music of Ireland" (1907) no. 571
R: Reel
Z: Transcribed by Frank Nordberg - http://www.musicaviva.com
F: http://www.musicaviva.com/abc/tunes/ireland/oneill-1001/oneill-1001-057
1.abc
%In O'Neill's book the title is given as "Kiss the maid behind the
%barrel" in the index and "Kiss the amid behind the barrel" (sic) on
%the music page.
M: C|
L: 1/8
K: G
DGGc AGGF|DGGB cAGF|DGGc AGA^c|defd cAFA:|dg ({a}(3(g)fg) ag ({a}(3(g)fg)
|df ({a}(3(g)fg) agfe|df ({g}(3(f)ef) af ({g}(3(f)ef)|
defd cAFA|dg ({a}(3(g)fg) ag ({a}(3(g)fg)|dg ({a}(3(g)fg) agfg|afge fde^c
|dfeg fdcA||G2(dG) BGdG|G2(dG) cAFA|G2(dG) AGA^c|
defd cAFA|G2(dG) BGdG|G2(dG) cAFA|G2GB A2A^c|defd cAFA||B2BG A2Ac|BABc de
dc|B2BG A2A^c|defd cAFA:|
W:
W:
W: From Musica Viva - http://www.musicaviva.com
W: the Internet center for free sheet music downloads.


